assets/img/amex.svg

<svg width="42" height="30" xmlns="http://www.w3.org/2000/svg"><g fill="none"><path d="M42 26a4 4 0 01-4 4H4a4 4 0 01-4-4V4a4 4 0 014-4h34a4 4 0 014 4v22z" fill="#1976D2"/><path d="M19.255 11l-2.113 4.683L15.039 11h-2.695v6.726L9.341 11H7.067L4 17.981h1.815l.671-1.558h3.432l.682 1.558h3.465v-5.185l2.299 5.185h1.563l2.351-5.095v5.095H22V11h-2.745zm-12.12 3.915l1.026-2.44 1.066 2.44H7.135zm27.748-.502L38 11.018h-2.217l-1.994 2.164L31.86 11H25v6.982h6.635l2.092-2.311L35.767 18h2.21l-3.094-3.587zm-4.155 2.103h-4.011v-1.381h3.838v-1.323h-3.838v-1.308l4.234.012 1.693 1.897-1.916 2.103z" fill="#FFF"/></g></svg>

<?xml version="1.0" encoding="UTF-8"?>
<svg width="42px" height="30px" viewBox="0 0 42 30" version="1.1" xmlns="http://www.w3.org/2000/svg" xmlns:xlink="http://www.w3.org/1999/xlink">
    <!-- Generator: Sketch 64 (93537) - https://sketch.com -->
    <title>icons8-american-express</title>
    <desc>Created with Sketch.</desc>
    <g id="Welcome" stroke="none" stroke-width="1" fill="none" fill-rule="evenodd">
        <g id="order-summery-1.0" transform="translate(-745.000000, -658.000000)" fill-rule="nonzero">
            <g id="icons8-american-express" transform="translate(745.000000, 658.000000)">
                <path d="M42,26 C42,28.209 40.209,30 38,30 L4,30 C1.791,30 0,28.209 0,26 L0,4 C0,1.791 1.791,0 4,0 L38,0 C40.209,0 42,1.791 42,4 L42,26 Z" id="Path" fill="#1976D2"></path>
                <path d="M19.255,11 L17.142,15.683 L15.039,11 L12.344,11 L12.344,17.726 L9.341,11 L7.067,11 L4,17.981 L5.815,17.981 L6.486,16.423 L9.918,16.423 L10.6,17.981 L14.065,17.981 L14.065,12.796 L16.364,17.981 L17.927,17.981 L20.278,12.886 L20.278,17.981 L22,17.981 L22,11 L19.255,11 Z M7.135,14.915 L8.161,12.475 L9.227,14.915 L7.135,14.915 Z M34.883,14.413 L38,11.018 L35.783,11.018 L33.789,13.182 L31.86,11 L25,11 L25,17.982 L31.635,17.982 L33.727,15.671 L35.767,18 L37.977,18 L34.883,14.413 Z M30.728,16.516 L26.717,16.516 L26.717,15.135 L30.555,15.135 L30.555,13.812 L26.717,13.812 L26.717,12.504 L30.951,12.516 L32.644,14.413 L30.728,16.516 Z" id="Shape" fill="#FFFFFF"></path>
            </g>
        </g>
    </g>
</svg>
